X:1
T:Walking the Golden Streets
T:Walking the Golden Streets
T:George Crawford Hugg
T:A. S. Doughty, 1880
T:Public Domain Courtesy of the Cyber Hymnal™
T:Public Domain Courtesy of the Cyber Hymnal™
C:George Crawford Hugg
Z:Public Domain
Z:Courtesy of the Cyber Hymnal™
%%score ( 1 2 ) ( 3 4 )
L:1/8
Q:1/4=100
M:4/4
K:D
V:1 treble 
V:2 treble 
V:3 bass 
V:4 bass 
V:1
 [FA]2 [FA]>[GB] [FA]2 [DF]>D | [Bd]>[^Ac] [Bd]>[GB] [F=A]4 | [EG]2 [EG]>[DF] [CE]2 [DF]>[EG] | %3
w: 1.~Who, who are these clothed in|gar- ments pure and white?|Walk- ing the streets of that|
w: 2.~These, these are they who through|trib- u- la- tion came,|Bear- ing the cross— who en-|
w: 3.~There- fore they dwell with the|Sav- ior they be- hold,|Walk through the streets that are|
 [FA]>[GB] [FA]>[EG] [DF]4 | [FA]2 [FA]>[GB] [FA]2 [DF]>[FA] | [Gd]>[Gc] [Ge]>[Gd] [GB]4 | %6
w: ci- ty fair and bright,|Dwell- ing in light where no|burn- ing rays are known,|
w: dured re- proach and shame;|Hav- ing their robes washed in|blood of Cal- vary’s Lamb,|
w: paved with pur- est gold,|Freed from all sor- row, they|shout o’er con- flict passed,|
 [FA]>[GB] [Ac]>[Fd] [DF]>[DF] [CG]>[CE] | D6 z2 ||"^Refrain" [FA]4 [DF]2 [FA]>[Ad] | %9
w: Stand- ing near the great e- ter- nal|throne.|Walk- ing thro’ the|
w: There- fore do they bear the con- queror’s|palm.||
w: Praise to Je- sus— vic- to- ry at|last.||
 ([G-c]4 [EG]2) z2 | [EG]4 [CE]2 [EG]>[GB] | ([F-A]4 [DF]2) z2 | [F-A]4 [DF]2 [FA]>[Ad] | %13
w: streets, *|walk- ing thro’ the|streets, *|Walk- thro’ the streets|
w: ||||
w: ||||
 ([G-e]4 [GB]2) z2 | [FA]>[GB] [FA]>[DF] [CG]2 [CE]2 | D6 z2 |] %16
w: of *|the New Je- ru- sa- lem.||
w: |||
w: |||
V:2
 x15/2 D/ | x8 | x8 | x8 | x8 | x8 | x8 | D6 x2 || x8 | x8 | x8 | x8 | x8 | x8 | x8 | %15
 (D2 D2 A,2) x2 |] %16
V:3
 [D,D]2 [D,D]>[D,D] [D,D]2 [D,A,]>[D,F,] | [G,D]>[G,D] [G,D]>[G,D] [D,D]4 | %2
w: ~ ~ ~ ~ ~ ~|~ ~ ~ ~ ~|
 [C,A,]2 [C,A,]>[C,A,] A,2 A,>A, | [A,,A,]>[A,,A,] [A,,A,]>[A,,A,] [D,A,]4 | %4
w: ~ ~ ~ ~ ~ ~|~ ~ ~ ~ ~|
 [D,D]2 [D,D]>[D,D] [D,D]2 [D,A,]>[D,D] | [G,B,]>[G,^A,] [G,B,]>[G,B,] [G,D]4 | %6
w: ~ ~ ~ ~ ~ ~|~ ~ ~ ~ ~|
 [A,D]>[A,D] [A,E]>A, [A,,A,]>[A,,A,] [A,,E,]>[A,,G,] | [D,F,]6 z2 || %8
w: ~ ~ ~ ~ ~ ~ ~ ~|~|
 [D,D]>[D,D] [D,D]>[D,D] [D,A,]2 [D,D]>[F,D] | (3[A,E][A,E][A,E] [A,E]>[A,E] [A,C]2 z2 | %10
w: Walk- ing thro’ the streets, thro’ the|beau- ti- ful gold- en streets,|
 [A,C]>[A,C] [A,C]>[A,C] A,2 A,>A, | (3[D,D][D,D][D,D] [D,D]>[D,D] [D,A,]2 z2 | %12
w: Walk- ing thro’ the streets, thro’ the|beau- ti- ful gold- en streets,|
 [D,D]>[D,D] [D,D]>[D,D] [D,A,]2 [D,D]>[F,D] | (3[G,B,][G,B,][G,B,] [G,B,]>[G,B,] [G,D]2 z2 | %14
w: Walk- ing thro’ the streets, thro’ the|beau- ti- ful gold- en streets,|
 [A,D]>[A,D] [A,D]>A, [A,,E,]2 [A,,G,]2 | F,2- G,2 F,2 z2 |] %16
w: ||
V:4
 x8 | x8 | x4 A,2 A,>A, | x8 | x8 | x8 | x7/2 A,/ x4 | x8 || x8 | x8 | x4 A,2 A,>A, | x8 | x8 | %13
 x8 | x7/2 A,/ x4 | D,6 x2 |] %16

